X:19
T: Obertas
N: K0344T
O: od Grojca
N: poprzedzony Drabantem
M: 3/4
L: 1/8
K: C
GBc2d2 | eee2dc | e2e2f2 | eee2dc |
e4f2 | eee2dc |
Bcd2de | dcBdg2 | Bcd2de | dcA^FG2

@@@ Tune index: 3514
